X:1
T:Morrison's Jig
R:jig
M:6/8
L:1/8
K:Edor
EBE BEB|EBE AFD|EDE BAB|dcB AFD|
EBE BEB|EBE AFD|~G3 FGA|dAG FED:|
Bee fee|aee fed|Bee fee|a2g fed|
Bee fee|aee fed|gfe d2A|BAG FED|
Bee fee|aee fed|Bee fee|faf def|
~g3 gfe|def g2d|edc d2A|BAG FED|]
